X: 1
T: Queen Of The West, The
M: 4/4
L: 1/8
R: hornpipe
K: Dmaj
uFE|:D>FAF DFA,F|&quot;A&quot;EGAG EGA,G|&quot;D&quot;FAdF &quot;D#dim&quot;GBec|&quot;A&quot;Adfd cAGC|
&quot;D&quot;DFAF DFA,F|&quot;A&quot;EGAG EGA,G|&quot;D&quot;FAdA &quot;A&quot;Ggec|1 &quot;D&quot;d2d2d2 FE:|2 &quot;D&quot;d2d2d2 ucd||
|:&quot;A&quot;ecAc EAce|&quot;D&quot;fdAd FAdf|&quot;G&quot;.g2fg &quot;D&quot;efdf|&quot;E&quot;(3edc (3dcB &quot;A&quot; ABcd|
ecAc EAce|&quot;D&quot;fdAd FAdf|&quot;G&quot;gbag &quot;A&quot;fedc|1 &quot;D&quot;d2d2d2 ucd:|2 &quot;D&quot;d2d2d2 uFE||
